!!!ONB: MCCC : IJH0448_01 : Extracted Monophonic Melody
!!!COM: Haydn, Joseph
!!!OPR: String Quartet in E-flat major
!!!OMV: 1
!!!SCT: Hob.III:64 ; Op.64 No.6
!!!ODT: 1791///
**kern
*thru
*k[b-e-a-]
*E-:
*clefF
*M4/4
2e-
2f
=1
4d
4b-
4g
4e-
=2
4c
4e-
4B-
4e-
=3
8.f
16g
8.a-
16g
4f
4r
=4
2e-
2f
=5
4d
4b-
4g
4e-
=6
4d-
4dd-
4cc
4a-
=7
4f
8.b-
16d
4e-
4r
=8
4ff
8.bb-
16dd
4ee-
4r
=9
4ff
8.bb-
16dd
4ee-
4r
=10
8ff
8gg
8aa-
8aa
4bb-
8aa-
8gg
=11
8gg
8ff
8ff
8ee-
4ee-
4r
=12
2B
2c
=13
4A
4f
4d
4B-
=14
4G
2e-
4d
=15
8c
8B-
8c
8d
4c
4r
=16
8d
8c
8d
8e-
4d
4r
=17
12a
12cc
12b-
12a
12cc
12b-
4a
4r
=18
12b-
12dd
12cc
12b-
12dd
12cc
4b-
4r
=19
12cc
12ee-
12dd
12cc
12dd
12ee-
12dd
12ff
12ee-
12dd
12cc
12b-
=20
12ee
12gg
12ff
12ee
12gg
12bb-
12gg
12ee
12cc
12b-
12g
12e
=21
12f
12a
12g
12f
12a
12cc
12ff
12ee
12ff
12aa
12gg
12ff
=22
12ee
12gg
12ff
12ee
12gg
12bb-
12gg
12ee
12cc
12b-
12g
12e
=23
2f
8g-
8g
8a-
8a
=24
2b-
2cc
=25
4a
4ff
4dd
4b-
=26
4r
2bb-
4aa
=27
4r
2gg
4ff
=28
4ee-
2dd
4cc
=29
4cc
4cc#
8dd
8cc
8dd
8ee-
=30
2ff
4ee
4ff
=31
8.gg
16aa
8.bb-
16ccc
8bb-
8aa
8gg
8ff
=32
2ee-
4dd
4cc#
=33
2dd
2b
=34
8.cc
16dd
8.ee-
16cc
4b-
4a
=35
4b-
12cc
12ff
12ee-
12dd
12cc
12b-
12cc
12ff
12ee-
=36
12dd
12cc
12b-
12dd
12gg
12ff
12ee-
12dd
12cc
12aa
12ff
12aa
=37
12bb-
12ff
12dd
12b
12cc
12gg
12ff
12dd
12b-
12ee-
12cc
12a
=38
12b-
12a
12b-
12dd-
12cc
12b-
12e
12b-
12cc
12dd-
12cc
12b-
=39
12G
12e
12b-
12dd-
12cc
12b-
12bb-
12b-
12cc
12dd-
12cc
12b-
=40
3..bb-[
24bb-]
8aa
8gg
8ff
=41
3..bb-[
24bb-]
8aa
8gg
8ff
=42
8bb-
8aa
8gg
8ff
8bb-
8aa
8gg
8ff
=43
16bb-
16aa
16gg
16ff
16bb-
16aa
16gg
16ff
16bb-
16aa
16gg
16ff
16bb-
16aa
16gg
16ff
=44
4bb-
4ddd
4bb-
4r
=45
2ff
2gg
=46
4ee-
4ccc
4aa
4ff
=47
4dd
4bb-
4gg
4ee-
=48
4cc
4ff
4dd
4b-
=49
1r
=50
1r
=51
1r
=52
1r
=53
1r
=54
1r
=55
2gg
2aa-
=56
4ff#
4ddd
4bb
4gg
=57
4ee
4ccc
4aa
4ff
=58
4dd
4bb-
4gg
4ee-
=59
1aa-
=60
2gg
4.aa-
16gg
16aa-
=61
8bb-
8aa-
8gg
8ff
4gg
4gg[
=62
4gg]
2ff
4ee-[
=63
4ee-]
2dd
4g
=64
8cc
8f
8g
8a
2b-[
=65
4b-]
8a-
8g
8a-
8cc
8b-
8a-
=66
4g
4ee-
4ee-
4ee
=67
4ff
8.bb-
16dd
4ee-
4r
=68
1r
=69
4dd-
8.ff
16dd-
4cc
4r
=70
1r
=71
1r
=72
1r
=73
4ee-
8.gg-
16ee-
4ff
4r
=74
1r
=75
4aa-
8.bb--
16gg
4aa-
4r
=76
1r
=77
4gg
8.aa-
16ff
4gg
4r
=78
1r
=79
4gg-
8.aa-
16ff
4gg-
4r
=80
1r
=81
4ff
8.gg-
16ee-
4ff
4r
=82
1r
=83
2g-
2a-
=84
4f
4dd-
4b-
4g-
=85
4e-
4g-
4d-
4g-
=86
8.a-
16b-
8.cc-
16b-
4a-
4r
=87
2g-
2a-
=88
4f
4dd-
4b-
4g-
=89
4g
4dd-
4b-
4g
=90
4a-
4ee-
4cc-
4a-
=91
4a
4ee-
4cc
4a
=92
8b-
8ff
8dd-
8b-
8b
8ff
8dd
8b
=93
8cc
8gg
8ee-
8cc
4ccc
4ff#
=94
2gg
2ff#
=95
2gg
2ff#
=96
4gg
2.r
=97
2e-
2f
=98
4d
4b-
4g
4e-
=99
4c
4e-
4B-
4e-
=100
8.f
16g
8.a-
16g
4f
4r
=101
1r
=102
1r
=103
1r
=104
2e-
4f
4d
=105
4b-
4g
4e-
4cc
=106
4a-
4f
4dd
4b-
=107
4g
2ee-
4dd
=108
4b-
2aa-
4gg[
=109
4gg]
2ff
4ee-[
=110
4ee-]
2dd
4cc[
=111
4cc]
4b-
4b-
4b-
=112
2b-
4a
4b-
=113
8.cc
16dd
8.ee-
16ff
8ee-
8dd
8cc
8b-
=114
2a-
4g
4f#
=115
2g
2e
=116
8.f
16g
8.a-
16f
4e-
4d
=117
4e-
12f
12b-
12a-
12g
12f
12e-
12f
12b-
12a-
=118
12g
12f
12e-
12g
12cc
12b-
12a-
12g
12f
12dd
12b-
12dd
=119
12ee-
12b-
12g
12e
12f
12cc
12b-
12g
12e-
12a-
12f
12d
=120
12e-
12a
12cc
12ee-
12cc
12a
4e-
4r
=121
12d
12f
12a-
12b-
12dd
12ff
4aa-
4r
=122
2ee-
2ff
=123
4dd
4bb-
4gg
4ee-
=124
4cc
4aa-
4b-
4gg
=125
4a-
4ff
8r
8g
8r
8ee-
=126
8r
8f
8r
8dd
8r
8e-
8r
8cc
=127
8r
8d
8b-
4r
8b-
4dd
=128
8r
8b-
4ee-
8r
8b-
4ff
=129
8r
8b-
4gg
8r
8ee-
4gg
=130
8r
8ee-
4aa-
8r
8ee-
4ddd-
=131
8r
8ee-
8ccc
8bb-
8aa-
8gg
8ff
8ee-
=132
4.dd
8ee-
8dd
8ee-
8ff
8gg
=133
4aa-
4gg
4ff
4dd
=134
4ee-
12b-
12bb-
12aa-
12gg
12ff
12ee-
12b-
12bb-
12aa-
=135
12gg
12ff
12ee-
12cc
12ccc
12bb-
12aa-
12gg
12ff
12dd
12ddd
12ddd
=136
12ee-
12eee-
12eee-
4ccc
4bb-
4dd
=137
12ee-
12cc
12a
12g-
12e-
12c
12A
12g-
12f
12g-
12f
12e-
=138
12A
12e-
12f
12g-
12f
12e-
12ee-
12e-
12f
12g-
12f
12e-
=139
3..ee-[
24ee-]
8dd
8cc
8b-
=140
3..ee-[
24ee-]
8dd
8cc
8b-
=141
8ee-
8dd
8cc
8b-
8ee-
8dd
8cc
8b-
=142
16ee-
16dd
16cc
16b-
16ee-
16dd
16cc
16b-
16ee-
16dd
16cc
16b-
16ee-
16dd
16cc
16b-
=143
4ee-
4gg
4e-
4r
==
*-
